X: 34926
T: Rocking Chair, The
R: jig
M: 6/8
K: Gmajor
|:c2A ABA|E2A ABc|B2G GBd|dBG GAB|
c2A ABA|E2A A2g|edc BAG|EAA A3:|
|:A2B c2d|e2f g2e|faf g2e|dBG GAB|
A2B c2d|e2f g2e|edc BAG|EAA A3:|

